src/shared/_assets/icons/file-pdf.svg

<svg width="16" height="20" viewBox="0 0 16 20" fill="none" xmlns="http://www.w3.org/2000/svg">
<path d="M4.267 12.68C4.083 12.68 3.959 12.698 3.895 12.716V13.894C3.971 13.912 4.066 13.917 4.197 13.917C4.676 13.917 4.971 13.675 4.971 13.266C4.971 12.9 4.717 12.68 4.267 12.68ZM7.754 12.692C7.554 12.692 7.424 12.71 7.347 12.728V15.338C7.424 15.356 7.548 15.356 7.66 15.356C8.477 15.362 9.009 14.912 9.009 13.96C9.015 13.13 8.53 12.692 7.754 12.692Z" fill="#EF4444"/>
<path d="M10 0H2C1.46957 0 0.960859 0.210714 0.585786 0.585786C0.210714 0.960859 0 1.46957 0 2V18C0 18.5304 0.210714 19.0391 0.585786 19.4142C0.960859 19.7893 1.46957 20 2 20H14C14.5304 20 15.0391 19.7893 15.4142 19.4142C15.7893 19.0391 16 18.5304 16 18V6L10 0ZM5.498 14.19C5.189 14.48 4.733 14.61 4.202 14.61C4.09902 14.6119 3.99605 14.6059 3.894 14.592V16.018H3V12.082C3.40347 12.022 3.81112 11.9946 4.219 12C4.776 12 5.172 12.106 5.439 12.319C5.693 12.521 5.865 12.852 5.865 13.242C5.864 13.634 5.734 13.965 5.498 14.19ZM9.305 15.545C8.885 15.894 8.246 16.06 7.465 16.06C6.997 16.06 6.666 16.03 6.441 16V12.083C6.84462 12.0243 7.25214 11.9966 7.66 12C8.417 12 8.909 12.136 9.293 12.426C9.708 12.734 9.968 13.225 9.968 13.93C9.968 14.693 9.689 15.22 9.305 15.545ZM13 12.77H11.468V13.681H12.9V14.415H11.468V16.019H10.562V12.03H13V12.77ZM9 7V2L14 7H9Z" fill="#EF4444"/>
</svg>

<svg xmlns="http://www.w3.org/2000/svg" fill="none" viewBox="0 0 16 20"><path fill="currentColor" d="M4.267 12.68c-.184 0-.308.018-.372.036v1.178c.076.018.171.023.302.023.479 0 .774-.242.774-.651 0-.366-.254-.586-.704-.586m3.487.012c-.2 0-.33.018-.407.036v2.61c.077.018.201.018.313.018.817.006 1.349-.444 1.349-1.396.006-.83-.479-1.268-1.255-1.268"/><path fill="currentColor" d="M10 0H2a2 2 0 0 0-2 2v16a2 2 0 0 0 2 2h12a2 2 0 0 0 2-2V6zM5.498 14.19c-.309.29-.765.42-1.296.42a2 2 0 0 1-.308-.018v1.426H3v-3.936q.606-.09 1.219-.082c.557 0 .953.106 1.22.319.254.202.426.533.426.923-.001.392-.131.723-.367.948m3.807 1.355c-.42.349-1.059.515-1.84.515-.468 0-.799-.03-1.024-.06v-3.917A8 8 0 0 1 7.66 12c.757 0 1.249.136 1.633.426.415.308.675.799.675 1.504 0 .763-.279 1.29-.663 1.615M13 12.77h-1.532v.911H12.9v.734h-1.432v1.604h-.906V12.03H13zM9 7V2l5 5z"/></svg>
